static/img/kroki/d77bb72db6ea0dd784cef2ab76ee6338.svg

<?xml version="1.0" encoding="us-ascii" standalone="no"?><svg xmlns="http://www.w3.org/2000/svg" xmlns:xlink="http://www.w3.org/1999/xlink" contentStyleType="text/css" height="705px" preserveAspectRatio="none" style="width:1020px;height:705px;" version="1.1" viewBox="0 0 1020 705" width="1020px" zoomAndPan="magnify"><defs/><g><!--class aws_ec2_elastic_ip--><g id="elem_aws_ec2_elastic_ip"><rect codeLine="23" fill="#3D176E" height="39.7891" id="aws_ec2_elastic_ip" rx="2.5" ry="2.5" style="stroke:#000D19;stroke-width:0.5;" width="199" x="7" y="660.14"/><ellipse cx="22" cy="680.0345" fill="#ADD1B2" rx="11" ry="11" style="stroke:#181818;stroke-width:1.0;"/><path d="M24.9688,685.6752 Q24.3906,685.972 23.75,686.1127 Q23.1094,686.2689 22.4063,686.2689 Q19.9063,686.2689 18.5781,684.6283 Q17.2656,682.972 17.2656,679.847 Q17.2656,676.722 18.5781,675.0658 Q19.9063,673.4095 22.4063,673.4095 Q23.1094,673.4095 23.75,673.5658 Q24.4063,673.722 24.9688,674.0189 L24.9688,676.7377 Q24.3438,676.1595 23.75,675.8939 Q23.1563,675.6127 22.5313,675.6127 Q21.1875,675.6127 20.5,676.6908 Q19.8125,677.7533 19.8125,679.847 Q19.8125,681.9408 20.5,683.0189 Q21.1875,684.0814 22.5313,684.0814 Q23.1563,684.0814 23.75,683.8158 Q24.3438,683.5345 24.9688,682.9564 L24.9688,685.6752 Z " fill="#000000"/><text fill="#D9B8FF" font-family="Helvetica" font-size="17" lengthAdjust="spacing" textLength="157" x="41" y="685.9198">aws_ec2_elastic_ip</text></g><!--class azure_network_public_ip_address--><g id="elem_azure_network_public_ip_address"><rect codeLine="26" fill="#3D176E" height="39.7891" id="azure_network_public_ip_address" rx="2.5" ry="2.5" style="stroke:#000D19;stroke-width:0.5;" width="321" x="241" y="660.14"/><ellipse cx="256" cy="680.0345" fill="#ADD1B2" rx="11" ry="11" style="stroke:#181818;stroke-width:1.0;"/><path d="M258.9688,685.6752 Q258.3906,685.972 257.75,686.1127 Q257.1094,686.2689 256.4063,686.2689 Q253.9063,686.2689 252.5781,684.6283 Q251.2656,682.972 251.2656,679.847 Q251.2656,676.722 252.5781,675.0658 Q253.9063,673.4095 256.4063,673.4095 Q257.1094,673.4095 257.75,673.5658 Q258.4063,673.722 258.9688,674.0189 L258.9688,676.7377 Q258.3438,676.1595 257.75,675.8939 Q257.1563,675.6127 256.5313,675.6127 Q255.1875,675.6127 254.5,676.6908 Q253.8125,677.7533 253.8125,679.847 Q253.8125,681.9408 254.5,683.0189 Q255.1875,684.0814 256.5313,684.0814 Q257.1563,684.0814 257.75,683.8158 Q258.3438,683.5345 258.9688,682.9564 L258.9688,685.6752 Z " fill="#000000"/><text fill="#D9B8FF" font-family="Helvetica" font-size="17" lengthAdjust="spacing" textLength="279" x="275" y="685.9198">azure_network_public_ip_address</text></g><!--class digitalocean_floating_ip--><g id="elem_digitalocean_floating_ip"><rect codeLine="29" fill="#3D176E" height="39.7891" id="digitalocean_floating_ip" rx="2.5" ry="2.5" style="stroke:#000D19;stroke-width:0.5;" width="240" x="596.5" y="660.14"/><ellipse cx="611.5" cy="680.0345" fill="#ADD1B2" rx="11" ry="11" style="stroke:#181818;stroke-width:1.0;"/><path d="M614.4688,685.6752 Q613.8906,685.972 613.25,686.1127 Q612.6094,686.2689 611.9063,686.2689 Q609.4063,686.2689 608.0781,684.6283 Q606.7656,682.972 606.7656,679.847 Q606.7656,676.722 608.0781,675.0658 Q609.4063,673.4095 611.9063,673.4095 Q612.6094,673.4095 613.25,673.5658 Q613.9063,673.722 614.4688,674.0189 L614.4688,676.7377 Q613.8438,676.1595 613.25,675.8939 Q612.6563,675.6127 612.0313,675.6127 Q610.6875,675.6127 610,676.6908 Q609.3125,677.7533 609.3125,679.847 Q609.3125,681.9408 610,683.0189 Q610.6875,684.0814 612.0313,684.0814 Q612.6563,684.0814 613.25,683.8158 Q613.8438,683.5345 614.4688,682.9564 L614.4688,685.6752 Z " fill="#000000"/><text fill="#D9B8FF" font-family="Helvetica" font-size="17" lengthAdjust="spacing" textLength="198" x="630.5" y="685.9198">digitalocean_floating_ip</text></g><!--class gcp_address--><g id="elem_gcp_address"><rect codeLine="32" fill="#3D176E" height="39.7891" id="gcp_address" rx="2.5" ry="2.5" style="stroke:#000D19;stroke-width:0.5;" width="142" x="871.5" y="660.14"/><ellipse cx="886.5" cy="680.0345" fill="#ADD1B2" rx="11" ry="11" style="stroke:#181818;stroke-width:1.0;"/><path d="M889.4688,685.6752 Q888.8906,685.972 888.25,686.1127 Q887.6094,686.2689 886.9063,686.2689 Q884.4063,686.2689 883.0781,684.6283 Q881.7656,682.972 881.7656,679.847 Q881.7656,676.722 883.0781,675.0658 Q884.4063,673.4095 886.9063,673.4095 Q887.6094,673.4095 888.25,673.5658 Q888.9063,673.722 889.4688,674.0189 L889.4688,676.7377 Q888.8438,676.1595 888.25,675.8939 Q887.6563,675.6127 887.0313,675.6127 Q885.6875,675.6127 885,676.6908 Q884.3125,677.7533 884.3125,679.847 Q884.3125,681.9408 885,683.0189 Q885.6875,684.0814 887.0313,684.0814 Q887.6563,684.0814 888.25,683.8158 Q888.8438,683.5345 889.4688,682.9564 L889.4688,685.6752 Z " fill="#000000"/><text fill="#D9B8FF" font-family="Helvetica" font-size="17" lengthAdjust="spacing" textLength="100" x="905.5" y="685.9198">gcp_address</text></g><!--class ip_address--><g id="elem_ip_address"><rect codeLine="35" fill="#3D176E" height="100.3828" id="ip_address" rx="2.5" ry="2.5" style="stroke:#000D19;stroke-width:0.5;" width="208" x="454.5" y="438.76"/><ellipse cx="505.75" cy="458.6545" fill="#ADD1B2" rx="11" ry="11" style="stroke:#181818;stroke-width:1.0;"/><path d="M508.7188,464.2952 Q508.1406,464.592 507.5,464.7327 Q506.8594,464.8889 506.1563,464.8889 Q503.6563,464.8889 502.3281,463.2483 Q501.0156,461.592 501.0156,458.467 Q501.0156,455.342 502.3281,453.6858 Q503.6563,452.0295 506.1563,452.0295 Q506.8594,452.0295 507.5,452.1858 Q508.1563,452.342 508.7188,452.6389 L508.7188,455.3577 Q508.0938,454.7795 507.5,454.5139 Q506.9063,454.2327 506.2813,454.2327 Q504.9375,454.2327 504.25,455.3108 Q503.5625,456.3733 503.5625,458.467 Q503.5625,460.5608 504.25,461.6389 Q504.9375,462.7014 506.2813,462.7014 Q506.9063,462.7014 507.5,462.4358 Q508.0938,462.1545 508.7188,461.5764 L508.7188,464.2952 Z " fill="#000000"/><text fill="#D9B8FF" font-family="Helvetica" font-size="17" lengthAdjust="spacing" textLength="87" x="531.25" y="464.5398">ip_address</text><line style="stroke:#000D19;stroke-width:0.5;" x1="455.5" x2="661.5" y1="478.5491" y2="478.5491"/><text fill="#D9B8FF" font-family="sans-serif" font-size="14" font-weight="bold" lengthAdjust="spacing" textLength="85" x="465.5" y="500.5442">ip_address</text><text fill="#D9B8FF" font-family="sans-serif" font-size="14" lengthAdjust="spacing" textLength="48" x="550.5" y="500.5442">: string</text><text fill="#D9B8FF" font-family="sans-serif" font-size="14" font-weight="bold" lengthAdjust="spacing" textLength="138" x="465.5" y="526.8411">ip_address_family</text><text fill="#D9B8FF" font-family="sans-serif" font-size="14" lengthAdjust="spacing" textLength="48" x="603.5" y="526.8411">: string</text></g><!--class resource--><g id="elem_resource"><rect codeLine="39" fill="#3D176E" height="310.7578" id="resource" rx="2.5" ry="2.5" style="stroke:#000D19;stroke-width:0.5;" width="227" x="445" y="7"/><ellipse cx="513.75" cy="26.8945" fill="#ADD1B2" rx="11" ry="11" style="stroke:#181818;stroke-width:1.0;"/><path d="M516.7188,32.5352 Q516.1406,32.832 515.5,32.9727 Q514.8594,33.1289 514.1563,33.1289 Q511.6563,33.1289 510.3281,31.4883 Q509.0156,29.832 509.0156,26.707 Q509.0156,23.582 510.3281,21.9258 Q511.6563,20.2695 514.1563,20.2695 Q514.8594,20.2695 515.5,20.4258 Q516.1563,20.582 516.7188,20.8789 L516.7188,23.5977 Q516.0938,23.0195 515.5,22.7539 Q514.9063,22.4727 514.2813,22.4727 Q512.9375,22.4727 512.25,23.5508 Q511.5625,24.6133 511.5625,26.707 Q511.5625,28.8008 512.25,29.8789 Q512.9375,30.9414 514.2813,30.9414 Q514.9063,30.9414 515.5,30.6758 Q516.0938,30.3945 516.7188,29.8164 L516.7188,32.5352 Z " fill="#000000"/><text fill="#D9B8FF" font-family="Helvetica" font-size="17" lengthAdjust="spacing" textLength="71" x="539.25" y="32.7798">resource</text><line style="stroke:#000D19;stroke-width:0.5;" x1="446" x2="671" y1="46.7891" y2="46.7891"/><text fill="#D9B8FF" font-family="sans-serif" font-size="14" font-weight="bold" lengthAdjust="spacing" textLength="29" x="456" y="68.7842">age</text><text fill="#D9B8FF" font-family="sans-serif" font-size="14" lengthAdjust="spacing" textLength="66" x="485" y="68.7842">: duration</text><text fill="#D9B8FF" font-family="sans-serif" font-size="14" font-weight="bold" lengthAdjust="spacing" textLength="43" x="456" y="95.0811">atime</text><text fill="#D9B8FF" font-family="sans-serif" font-size="14" lengthAdjust="spacing" textLength="70" x="499" y="95.0811">: datetime</text><text fill="#D9B8FF" font-family="sans-serif" font-size="14" font-weight="bold" lengthAdjust="spacing" textLength="43" x="456" y="121.3779">ctime</text><text fill="#D9B8FF" font-family="sans-serif" font-size="14" lengthAdjust="spacing" textLength="70" x="499" y="121.3779">: datetime</text><text fill="#D9B8FF" font-family="sans-serif" font-size="14" font-weight="bold" lengthAdjust="spacing" textLength="14" x="456" y="147.6748">id</text><text fill="#D9B8FF" font-family="sans-serif" font-size="14" lengthAdjust="spacing" textLength="48" x="470" y="147.6748">: string</text><text fill="#D9B8FF" font-family="sans-serif" font-size="14" font-weight="bold" lengthAdjust="spacing" textLength="33" x="456" y="173.9717">kind</text><text fill="#D9B8FF" font-family="sans-serif" font-size="14" lengthAdjust="spacing" textLength="48" x="489" y="173.9717">: string</text><text fill="#D9B8FF" font-family="sans-serif" font-size="14" font-weight="bold" lengthAdjust="spacing" textLength="90" x="456" y="200.2686">last_access</text><text fill="#D9B8FF" font-family="sans-serif" font-size="14" lengthAdjust="spacing" textLength="66" x="546" y="200.2686">: duration</text><text fill="#D9B8FF" font-family="sans-serif" font-size="14" font-weight="bold" lengthAdjust="spacing" textLength="90" x="456" y="226.5654">last_update</text><text fill="#D9B8FF" font-family="sans-serif" font-size="14" lengthAdjust="spacing" textLength="66" x="546" y="226.5654">: duration</text><text fill="#D9B8FF" font-family="sans-serif" font-size="14" font-weight="bold" lengthAdjust="spacing" textLength="48" x="456" y="252.8623">mtime</text><text fill="#D9B8FF" font-family="sans-serif" font-size="14" lengthAdjust="spacing" textLength="70" x="504" y="252.8623">: datetime</text><text fill="#D9B8FF" font-family="sans-serif" font-size="14" font-weight="bold" lengthAdjust="spacing" textLength="43" x="456" y="279.1592">name</text><text fill="#D9B8FF" font-family="sans-serif" font-size="14" lengthAdjust="spacing" textLength="48" x="499" y="279.1592">: string</text><text fill="#D9B8FF" font-family="sans-serif" font-size="14" font-weight="bold" lengthAdjust="spacing" textLength="34" x="456" y="305.4561">tags</text><text fill="#D9B8FF" font-family="sans-serif" font-size="14" lengthAdjust="spacing" textLength="171" x="490" y="305.4561">: dictionary[string, string]</text></g><!--reverse link ip_address to aws_ec2_elastic_ip--><g id="link_ip_address_aws_ec2_elastic_ip"><path codeLine="51" d="M437.6242,540.516 C342.5942,580.266 223.24,630.2 152.79,659.67 " fill="none" id="ip_address-backto-aws_ec2_elastic_ip" style="stroke:#FFAF37;stroke-width:2.0;"/><polygon fill="none" points="454.23,533.57,435.3089,534.9808,439.9395,546.0513,454.23,533.57" style="stroke:#FFAF37;stroke-width:2.0;"/></g><!--reverse link ip_address to azure_network_public_ip_address--><g id="link_ip_address_azure_network_public_ip_address"><path codeLine="52" d="M505.7506,553.4778 C473.0406,592.8678 440.61,631.94 417.4,659.89 " fill="none" id="ip_address-backto-azure_network_public_ip_address" style="stroke:#FFAF37;stroke-width:2.0;"/><polygon fill="none" points="517.25,539.63,501.1346,549.6447,510.3665,557.311,517.25,539.63" style="stroke:#FFAF37;stroke-width:2.0;"/></g><!--reverse link ip_address to digitalocean_floating_ip--><g id="link_ip_address_digitalocean_floating_ip"><path codeLine="53" d="M611.553,553.4416 C644.473,592.8316 677.15,631.94 700.5,659.89 " fill="none" id="ip_address-backto-digitalocean_floating_ip" style="stroke:#FFAF37;stroke-width:2.0;"/><polygon fill="none" points="600.01,539.63,606.9491,557.2892,616.1568,549.5939,600.01,539.63" style="stroke:#FFAF37;stroke-width:2.0;"/></g><!--reverse link ip_address to gcp_address--><g id="link_ip_address_gcp_address"><path codeLine="54" d="M675.5388,547.5809 C755.3188,586.8609 846.26,631.64 903.14,659.65 " fill="none" id="ip_address-backto-gcp_address" style="stroke:#FFAF37;stroke-width:2.0;"/><polygon fill="none" points="659.39,539.63,672.8885,552.9638,678.1891,542.198,659.39,539.63" style="stroke:#FFAF37;stroke-width:2.0;"/></g><!--reverse link resource to ip_address--><g id="link_resource_ip_address"><path codeLine="55" d="M558.5,336.06 C558.5,379.65 558.5,405.98 558.5,438.42 " fill="none" id="resource-backto-ip_address" style="stroke:#FFAF37;stroke-width:2.0;"/><polygon fill="none" points="558.5,318.06,552.5,336.06,564.5,336.06,558.5,318.06" style="stroke:#FFAF37;stroke-width:2.0;"/></g><!--SRC=[XP9FRnen4CNl-oaivOQA18aQGjHBYXIbboXgSgigQx37YyMklHfxYqZRxnwR1UBz0zpOUJ-_UJF3IajaM5P-oqeibqWkSsjjAY0esGEHtIniOObTAGNgPjOL7wtn5u5dA94zOV47lHRG9TvMMgmDEiUk4-axY7LEjZQoiVS4nWK9ZK-eHG7EFNXFUbbxJCB8-V9EgIxPDRswaTFPBVOmIn9fZqmc4pcTTv6BhSxEVIHUzJkoQRgqP-kn5xFNOaUTJHc996Hlq8D-CkCBIAbDphucjPzD9Z98hVhh2gJTH5f1uT8spYEXzTiA5xsfS7udrMmG_d4ApaHS7OEDuoYkEOQla9lhYltDily7zRqcv0RznjAQL_Mos24yJ4JnVvQWKkVQGs45Wk6giE3351sxN0m-RHcEHf-Vez5z68M2KQlC5PIws2RgmIcejYQ1En_8CIAoff35cbZnkcngu37-3ZKnKDEorJcijLs8k-8Wn3vYqc6dr5NqwYZbG1y3JUbex25l7BM8pu2slnhjovxv7KPDrlNjttWy7hZX07F-alq7f-xP9vEhPiS3D5BIu0C0]--></g></svg>

<svg xmlns="http://www.w3.org/2000/svg" width="1020" height="705" viewBox="0 0 1020 705"><rect width="199" height="39.789" x="7" y="660.14" fill="#3D176E" rx="2.5" ry="2.5" style="stroke:#000d19;stroke-width:.5"/><circle cx="22" cy="680.034" r="11" fill="#ADD1B2" style="stroke:#181818;stroke-width:1"/><path d="M24.969 685.675q-.578.297-1.219.438-.64.156-1.344.156-2.5 0-3.828-1.64-1.312-1.657-1.312-4.782t1.312-4.781q1.328-1.657 3.828-1.657.703 0 1.344.157.656.156 1.219.453v2.719q-.625-.579-1.219-.844-.594-.281-1.219-.281-1.343 0-2.031 1.078-.687 1.062-.687 3.156t.687 3.172q.688 1.062 2.031 1.062.625 0 1.219-.265.594-.282 1.219-.86z"/><text x="41" y="685.92" fill="#D9B8FF" font-family="Helvetica" font-size="17" textLength="157">aws_ec2_elastic_ip</text><rect width="321" height="39.789" x="241" y="660.14" fill="#3D176E" rx="2.5" ry="2.5" style="stroke:#000d19;stroke-width:.5"/><circle cx="256" cy="680.034" r="11" fill="#ADD1B2" style="stroke:#181818;stroke-width:1"/><path d="M258.969 685.675q-.578.297-1.219.438-.64.156-1.344.156-2.5 0-3.828-1.64-1.312-1.657-1.312-4.782t1.312-4.781q1.328-1.657 3.828-1.657.703 0 1.344.157.656.156 1.219.453v2.719q-.625-.579-1.219-.844-.594-.281-1.219-.281-1.344 0-2.031 1.078-.687 1.062-.687 3.156t.687 3.172q.688 1.062 2.031 1.062.625 0 1.219-.265.594-.282 1.219-.86z"/><text x="275" y="685.92" fill="#D9B8FF" font-family="Helvetica" font-size="17" textLength="279">azure_network_public_ip_address</text><rect width="240" height="39.789" x="596.5" y="660.14" fill="#3D176E" rx="2.5" ry="2.5" style="stroke:#000d19;stroke-width:.5"/><circle cx="611.5" cy="680.034" r="11" fill="#ADD1B2" style="stroke:#181818;stroke-width:1"/><path d="M614.469 685.675q-.578.297-1.219.438-.64.156-1.344.156-2.5 0-3.828-1.64-1.312-1.657-1.312-4.782t1.312-4.781q1.328-1.657 3.828-1.657.703 0 1.344.157.656.156 1.219.453v2.719q-.625-.579-1.219-.844-.594-.281-1.219-.281-1.343 0-2.031 1.078-.687 1.062-.687 3.156t.687 3.172q.688 1.062 2.031 1.062.625 0 1.219-.265.594-.282 1.219-.86z"/><text x="630.5" y="685.92" fill="#D9B8FF" font-family="Helvetica" font-size="17" textLength="198">digitalocean_floating_ip</text><rect width="142" height="39.789" x="871.5" y="660.14" fill="#3D176E" rx="2.5" ry="2.5" style="stroke:#000d19;stroke-width:.5"/><circle cx="886.5" cy="680.034" r="11" fill="#ADD1B2" style="stroke:#181818;stroke-width:1"/><path d="M889.469 685.675q-.578.297-1.219.438-.64.156-1.344.156-2.5 0-3.828-1.64-1.312-1.657-1.312-4.782t1.312-4.781q1.328-1.657 3.828-1.657.703 0 1.344.157.656.156 1.219.453v2.719q-.625-.579-1.219-.844-.594-.281-1.219-.281-1.343 0-2.031 1.078-.687 1.062-.687 3.156t.687 3.172q.688 1.062 2.031 1.062.625 0 1.219-.265.594-.282 1.219-.86z"/><text x="905.5" y="685.92" fill="#D9B8FF" font-family="Helvetica" font-size="17" textLength="100">gcp_address</text><rect width="208" height="100.383" x="454.5" y="438.76" fill="#3D176E" rx="2.5" ry="2.5" style="stroke:#000d19;stroke-width:.5"/><circle cx="505.75" cy="458.654" r="11" fill="#ADD1B2" style="stroke:#181818;stroke-width:1"/><path d="M508.719 464.295q-.578.297-1.219.438-.64.156-1.344.156-2.5 0-3.828-1.64-1.312-1.657-1.312-4.782t1.312-4.781q1.328-1.656 3.828-1.656.703 0 1.344.156.656.156 1.219.453v2.719q-.625-.579-1.219-.844-.594-.281-1.219-.281-1.344 0-2.031 1.078-.687 1.062-.687 3.156t.687 3.172q.688 1.062 2.031 1.062.625 0 1.219-.265.594-.281 1.219-.86z"/><text x="531.25" y="464.54" fill="#D9B8FF" font-family="Helvetica" font-size="17" textLength="87">ip_address</text><path d="M455.5 478.549h206" style="stroke:#000d19;stroke-width:.5"/><text x="465.5" y="500.544" fill="#D9B8FF" font-family="sans-serif" font-size="14" font-weight="bold" textLength="85">ip_address</text><text x="550.5" y="500.544" fill="#D9B8FF" font-family="sans-serif" font-size="14" textLength="48">: string</text><text x="465.5" y="526.841" fill="#D9B8FF" font-family="sans-serif" font-size="14" font-weight="bold" textLength="138">ip_address_family</text><text x="603.5" y="526.841" fill="#D9B8FF" font-family="sans-serif" font-size="14" textLength="48">: string</text><rect width="227" height="310.758" x="445" y="7" fill="#3D176E" rx="2.5" ry="2.5" style="stroke:#000d19;stroke-width:.5"/><circle cx="513.75" cy="26.895" r="11" fill="#ADD1B2" style="stroke:#181818;stroke-width:1"/><path d="M516.719 32.535q-.578.297-1.219.438-.64.156-1.344.156-2.5 0-3.828-1.64-1.312-1.657-1.312-4.782t1.312-4.781q1.328-1.656 3.828-1.656.703 0 1.344.156.656.156 1.219.453v2.719q-.625-.578-1.219-.844-.594-.281-1.219-.281-1.343 0-2.031 1.078-.687 1.062-.687 3.156t.687 3.172q.688 1.062 2.031 1.062.625 0 1.219-.265.594-.281 1.219-.86z"/><text x="539.25" y="32.78" fill="#D9B8FF" font-family="Helvetica" font-size="17" textLength="71">resource</text><path d="M446 46.789h225" style="stroke:#000d19;stroke-width:.5"/><text x="456" y="68.784" fill="#D9B8FF" font-family="sans-serif" font-size="14" font-weight="bold" textLength="29">age</text><text x="485" y="68.784" fill="#D9B8FF" font-family="sans-serif" font-size="14" textLength="66">: duration</text><text x="456" y="95.081" fill="#D9B8FF" font-family="sans-serif" font-size="14" font-weight="bold" textLength="43">atime</text><text x="499" y="95.081" fill="#D9B8FF" font-family="sans-serif" font-size="14" textLength="70">: datetime</text><text x="456" y="121.378" fill="#D9B8FF" font-family="sans-serif" font-size="14" font-weight="bold" textLength="43">ctime</text><text x="499" y="121.378" fill="#D9B8FF" font-family="sans-serif" font-size="14" textLength="70">: datetime</text><text x="456" y="147.675" fill="#D9B8FF" font-family="sans-serif" font-size="14" font-weight="bold" textLength="14">id</text><text x="470" y="147.675" fill="#D9B8FF" font-family="sans-serif" font-size="14" textLength="48">: string</text><text x="456" y="173.972" fill="#D9B8FF" font-family="sans-serif" font-size="14" font-weight="bold" textLength="33">kind</text><text x="489" y="173.972" fill="#D9B8FF" font-family="sans-serif" font-size="14" textLength="48">: string</text><text x="456" y="200.269" fill="#D9B8FF" font-family="sans-serif" font-size="14" font-weight="bold" textLength="90">last_access</text><text x="546" y="200.269" fill="#D9B8FF" font-family="sans-serif" font-size="14" textLength="66">: duration</text><text x="456" y="226.565" fill="#D9B8FF" font-family="sans-serif" font-size="14" font-weight="bold" textLength="90">last_update</text><text x="546" y="226.565" fill="#D9B8FF" font-family="sans-serif" font-size="14" textLength="66">: duration</text><text x="456" y="252.862" fill="#D9B8FF" font-family="sans-serif" font-size="14" font-weight="bold" textLength="48">mtime</text><text x="504" y="252.862" fill="#D9B8FF" font-family="sans-serif" font-size="14" textLength="70">: datetime</text><text x="456" y="279.159" fill="#D9B8FF" font-family="sans-serif" font-size="14" font-weight="bold" textLength="43">name</text><text x="499" y="279.159" fill="#D9B8FF" font-family="sans-serif" font-size="14" textLength="48">: string</text><text x="456" y="305.456" fill="#D9B8FF" font-family="sans-serif" font-size="14" font-weight="bold" textLength="34">tags</text><text x="490" y="305.456" fill="#D9B8FF" font-family="sans-serif" font-size="14" textLength="171">: dictionary[string, string]</text><path fill="none" d="M437.624 540.516C342.594 580.266 223.24 630.2 152.79 659.67m301.44-126.1-18.921 1.41 4.63 11.071zm51.52 19.908c-32.71 39.39-65.14 78.462-88.35 106.412m99.85-120.26-16.115 10.015 9.231 7.666z" style="stroke:#ffaf37;stroke-width:2"/><g fill="none"><path d="M611.553 553.442c32.92 39.39 65.597 78.498 88.947 106.448" style="stroke:#ffaf37;stroke-width:2"/><path d="m600.01 539.63 6.94 17.66 9.207-7.696z" style="stroke:#ffaf37;stroke-width:2"/></g><g fill="none"><path d="M675.539 547.58c79.78 39.28 170.721 84.06 227.601 112.07" style="stroke:#ffaf37;stroke-width:2"/><path d="m659.39 539.63 13.499 13.334 5.3-10.766z" style="stroke:#ffaf37;stroke-width:2"/></g><path fill="none" d="M558.5 336.06v102.36m0-120.36-6 18h12z" style="stroke:#ffaf37;stroke-width:2"/></svg>
